X:35
T:Rakes of Clonmel
S:Bernie Waugh
R:Jig
M:6/8
L:1/8
K:A Dor
|:e/d/|\
"Am"~cBA "Em"BGE|"Am"EAA A2B|"C"~cBc "Am"ABc|"Em"BGG G2e/f/|
"G"~gfg "Em"ege|"G"dBG Bcd|"Am"~cBA "Em"BGE|"Am"EAA A2:|
|:a|\
"Am"aeg A2a|ecA A2g|"G"gdg G2g|dBA GAB|
"C"cBc C2B|"G"dcd D2d|"Am"edc "Em"Bcd|"Am"ecA A2:|

